!!!COM: Bach, Johann Sebastian
!!!OPR: Joh. Seb. Bachs vierstimmige Choralges‰nge
!!!XEN: Four-part Chorales
!!!OTL: 26. Christ lag in Todesbanden
!!!SCT: BWV 278
!!!SCA: Thematisch-systematisches Verzeichnis der musikalischen Werke Johann Sebastian Bach: Bach-Werke-Verzeichnis (Schmieder)
!!!YOR: Bach Gesellschaft Edition xxxix
!!!ENC: Steven Rasmussen
!!!CDT: 1685/3//-1750/7/28/
!!!OCY: Deutschland
!!!YEC: Copyright (c) 1994, 2000 Center for Computer Assisted Research in the Humanities
!!!YEM: Rights to all derivative editions reserved
!!!YEN: United States of America
**kern	**silbe	**kern	**silbe	**kern	**silbe	**kern	**silbe
*I:[SOPRANO]	*I:[SOPRANO]	*I:[ALTO]	*I:[ALTO]	*I:[TENORE]	*I:[TENORE]	*I:[BASSO]	*I:[BASSO]
*>[A,A,B]	*	*>[A,A,B]	*	*>[A,A,B]	*	*>[A,A,B]	*
*>A	*	*>A	*	*>A	*	*>A	*
*clefG2	*	*clefG2	*	*clefGv2	*	*clefF4	*
*k[f#]	*	*k[f#]	*	*k[f#]	*	*k[f#]	*
*e:	*	*e:	*	*e:	*	*e:	*
*M4/4	*	*M4/4	*	*M4/4	*	*M4/4	*
4b	Christder	4g	.	8eL	.	4E	.
.	.	.	.	8dJ	.	.	.
=1	=1	=1	=1	=1	=1	=1	=1
4a#	lagist	4.f#	.	4c#	.	4E	.
8bL	inwie-	.	.	8dL	inwie-	8DL	.
8cc#J	.	8a#	inwie-	8eJ	.	8C#J	.
4dd	To--der	8b	To--der	(8f#	To--der	(8BB	.
.	.	16a#LL	-des-er-	4g)	.	4B)	.
.	.	16bJJ	.	.	.	.	.
4ee	-des-er-	[4cc#	-ban--stan-	.	.	.	.
.	.	.	.	8f#	-des-er-	8A#	.
=2	=2	=2	=2	=2	=2	=2	=2
4dd	-ban--stan-	8cc#]	.	8f#L	-ban--stan-	8BL	.
.	.	4b	.	8B	.	8G	.
4cc#	.	.	.	16c#L	.	8E	.
.	.	.	.	16dJ	.	.	.
.	.	8a#	.	8eJ	.	8F#J	.
4b;	-den-den	4f#;	-den-den	(8eL	-den-den	4BB;	.
.	.	.	.	8d#;J)	.	.	.
8bL	f√ºrund	4f#	.	4B	.	4D#	.
8aJ	.	.	.	.	.	.	.
=3	=3	=3	=3	=3	=3	=3	=3
4g	un-hat	(8f#	.	(8B	.	4E	.
.	.	4e)	.	4c)	.	.	.
4a	-seruns	.	.	.	.	4F#	.
.	.	16d#LL	.	16BLL	.	.	.
.	.	16c#JJ	.	16AJJ	.	.	.
8bL	S√ºnd'bracht	8BL	.	4B	.	8GL	.
8aJ	.	8d#J	.	.	.	8F#	.
4g	ge-das	4e	.	4B	.	8GJ	.
.	.	.	.	.	.	8A	.
=4	=4	=4	=4	=4	=4	=4	=4
8f#L	-ge-Le-	8eL	.	4.B	.	4B	.
8eJ	.	16d#L	.	.	.	.	.
.	.	16c#JJ	.	.	.	.	.
4f#	.	4d#	.	.	.	4BB	.
.	.	.	.	8A	.	.	.
4e;	-ben,-ben.	4B;	.	4G;	.	4E;	.
=:|!	=:|!	=:|!	=:|!	=:|!	=:|!	=:|!	=:|!
*>B	*	*>B	*	*>B	*	*>B	*
4r	.	4r	.	4r	.	4r	.
=5	=5	=5	=5	=5	=5	=5	=5
8eL	Dess	4B	.	8GL	.	4.E	.
8f#J	.	.	.	8AJ	.	.	.
4g	wir	4e	.	4B	.	.	.
.	.	.	.	.	.	8D	.
4a	sol-	4.e	.	4E	.	8CL	.
.	.	.	.	.	.	8BBJ	.
8eL	-len	.	.	4A	.	8C#L	.
8f#J	.	8B	.	.	.	8D#J	.
=6	=6	=6	=6	=6	=6	=6	=6
4g	fr√∂h-	8BL	.	8GL	.	8EL	.
.	.	16cL	.	16AL	.	8DJ	.
.	.	16dJJ	.	16BJJ	.	.	.
4a	-lich	4e	.	4c	.	4C	.
4b;	sein,	4d#;	.	4F#;	.	4BB;	.
4b	Gott	4f#	.	4d#	.	8BL	.
.	.	.	.	.	.	8AJ	.
=7	=7	=7	=7	=7	=7	=7	=7
4ee	lo-	4b	.	8eL	.	8GL	.
.	.	.	.	16f#L	.	16F#L	.
.	.	.	.	16gJ	.	16EJ	.
4dd	-ben	4a	.	8aJ	.	8F#J	.
.	.	.	.	8f#	.	8A	.
4ee	und	8b	und	8B	und	8G#	.
.	.	8g#	ihm	8e	ihm	8c#	.
8ff#L	ihm	[4cc#	dank-	8c#L	dank-	8A#L	.
8eeJ	.	.	.	16BL	.	8F#J	.
.	.	.	.	16A#JJ	.	.	.
=8	=8	=8	=8	=8	=8	=8	=8
4dd	dank-	(8cc#]	.	8BL	.	8BL	.
.	.	4b)	.	8dJ	.	8GJ	.
4cc#	-bar	.	.	8gL	-bar	8EL	.
.	.	8a#	-bar	8f#J	.	8F#J	.
4b;	sein,	4f#;	.	4d;	.	4BB;	.
4cc#	und	4g	.	4e	.	4E	.
=9	=9	=9	=9	=9	=9	=9	=9
8ddL	sin-	4f#	.	4A	.	4D	.
8ccJ	.	.	.	.	.	.	.
8bL	-gen	4d	.	8BL	.	8GGL	.
8ccJ	.	.	.	8AJ	.	8AAJ	.
4dd	Hal-	2d	Hal-	4.G	Hal-	8BBL	Hal-
.	.	.	.	.	.	8CJ	.
4a	-le-	.	.	.	.	[4D	.
.	.	.	.	8F#	-le-	.	.
=10	=10	=10	=10	=10	=10	=10	=10
(4g	-lu-	4.e	-le-	(4B	-lu-	8D]	.
.	.	.	.	.	.	8C#	-le-
4f#)	.	.	.	4A)	.	8DL	-lu-
.	.	8d	-lu-	.	.	8F#J	.
2e;	-ja,	2c#;	-ja,	2A;	-ja,	2A;	-ja,
=11	=11	=11	=11	=11	=11	=11	=11
4b	Hal-	8d#L	.	4B	Hal-	8A	Hal-
.	.	8eJ	.	.	.	4G	.
4a	-le-	8eL	.	8c#L	.	.	.
.	.	8f#J	.	8d#J	.	8F#	.
(4g	-lu-	8B	.	8eL	.	8E	.
.	.	4e	.	8GJ	.	8C	-le-
4f#)	.	.	.	8cn	-le-	8AAL	-lu-
.	.	8d#	.	16BLL	-lu-	8BBJ	.
.	.	.	.	16AJJ	.	.	.
=12	=12	=12	=12	=12	=12	=12	=12
2.e;	-ja.	2.B;	ja.	2.G#;	-ja.	2.E;	-ja.
==|!	==|!	==|!	==|!	==|!	==|!	==|!	==|!
*-	*-	*-	*-	*-	*-	*-	*-
!!!RWG: Key is interpreted using the Humdrum key tool.
!!!END: 1994/05/11
!!!EMD: Converted from MuseData to Humdrum Dec 19, 2000, by Andreas Kornstaedt using muse2kern.
!!!EED: Craig Stuart Sapp
!!!EEV: 2024/03/31
!!!ONB: Some non-unicode characters
